frontend/public/svg/arrows/arrow-square-left.svg

<svg width="153" height="149" viewBox="0 0 153 149" fill="none" xmlns="http://www.w3.org/2000/svg">
<path d="M151.785 94.9965C151.6 90.5767 151.407 84.329 151.202 77.7138C150.888 67.5976 150.532 56.1322 150.14 49.2557C149.746 42.3176 149.179 33.1905 148.323 24.1179C147.085 11.0082 136.533 1.51896 122.66 1.04115C112.313 0.685413 101.785 0.537056 91.6051 0.392662H91.506C88.5984 0.350656 85.6436 0.37687 82.7853 0.401154C78.0839 0.439878 73.2218 0.481893 68.4594 0.229859C57.679 -0.339186 46.2561 0.137913 31.417 1.77744C21.8141 2.83874 14.5911 5.6584 8.68672 10.6505C3.85082 14.7388 1.4939 19.4756 1.48143 25.1306C1.47683 26.9848 1.44005 28.8639 1.36982 30.7161C1.30878 32.3477 1.19786 34.0129 1.08956 35.6223C0.785311 39.0539 0.703301 42.5015 0.844077 45.9437C1.58377 57.6384 2.74752 83.2775 1.84965 96.613C1.53002 101.356 1.61797 106.196 1.70264 110.881L1.72034 111.894C1.7439 119.204 2.95124 126.461 5.29543 133.385C7.71338 140.284 12.4055 144.477 19.24 145.851C23.5215 146.742 27.8669 147.292 32.2354 147.497C40.397 147.83 48.7003 148.015 56.73 148.194C59.988 148.267 63.2461 148.342 66.5041 148.422L66.8284 148.328L69.6349 148.32C71.7128 148.32 73.7913 148.32 75.8701 148.32L79.2949 148.325C92.7931 148.348 106.759 148.38 120.382 146.246C125.121 145.503 130.658 144.467 135.782 142.407C146 138.3 151.514 130.729 152.17 119.905C152.597 112.882 152.274 105.803 151.962 98.9595C151.9 97.6381 151.841 96.317 151.785 94.9965ZM10.0434 87.3174L10.0013 85.4749C9.79917 76.663 9.37917 58.3263 8.87773 50.6084C8.38153 42.9949 8.07957 32.9529 10.1615 22.819L10.1818 22.7448C10.2188 22.6409 10.2348 22.5308 10.2291 22.4207C9.73159 16.5274 13.883 14.2499 18.2785 11.8379L18.428 11.7558C22.6535 9.43699 27.3123 8.63428 31.7209 8.00945C41.7125 6.69628 51.7842 6.08777 61.8612 6.18866C66.0552 6.18866 70.1915 6.25764 74.2463 6.34297C81.6058 6.49786 89.0907 6.59835 96.3274 6.69549C102.668 6.78082 109.224 6.86867 115.672 6.99338C118.669 7.02942 121.658 7.28521 124.617 7.75868C135.355 9.5472 141.294 16.5261 141.791 27.9391C142.153 36.2477 142.488 47.8681 142.812 59.1053C143.111 69.4905 143.421 80.2301 143.744 87.9841C143.847 90.4467 143.987 92.948 144.124 95.3673C144.338 99.159 144.558 103.081 144.637 106.937C144.728 111.512 144.475 116.186 144.209 120.582C143.815 127.108 140.024 131.74 132.952 134.35C128.675 135.852 124.254 136.908 119.759 137.501C104.668 139.753 89.1924 139.653 74.2227 139.555L72.2465 139.542C71.4726 139.537 70.6968 139.539 69.9223 139.542H68.4988L68.4909 139.799C65.1755 139.714 61.8603 139.632 58.5454 139.551C48.9517 139.315 39.0325 139.071 29.28 138.751C26.7515 138.598 24.2386 138.249 21.7642 137.707L21.3356 137.625C17.1082 136.816 14.28 134.208 12.9312 129.871C10.9275 123.24 9.92498 116.348 9.95669 109.421C9.93503 106.267 9.9803 103.054 10.0223 99.9538C10.0807 95.8097 10.1405 91.5272 10.0434 87.3154V87.3174Z" fill="black"/>
<path d="M43.7509 87.4474C45.7015 89.7039 47.6434 91.9689 49.5765 94.2425C51.6768 96.705 53.7849 99.1623 55.901 101.614C56.7091 102.601 57.657 103.465 58.7147 104.178C59.1179 104.394 59.5703 104.501 60.0274 104.488C60.4636 104.517 60.896 104.392 61.2489 104.134C61.54 103.784 61.7361 103.366 61.8182 102.918C61.9003 102.471 61.8656 102.01 61.7175 101.58C61.1451 100.531 60.4666 99.5438 59.6927 98.6333C59.5208 98.4174 59.3501 98.2021 59.182 97.9855C56.7457 94.8442 54.3074 91.7053 51.8671 88.5684C49.023 84.9109 46.1822 81.2519 43.3446 77.5917C43.1109 77.2664 42.9047 76.9223 42.7283 76.5627C42.685 76.4806 42.6391 76.3952 42.5918 76.3066C44.1598 76.3834 45.7002 76.4623 47.2223 76.5404C50.9765 76.7321 54.5234 76.9137 58.1175 77.0516C65.7599 77.343 76.9229 77.6273 87.7183 77.901C97.0114 78.1373 105.789 78.3603 112.236 78.5828C113.499 78.612 114.762 78.5224 116.009 78.3151C117.912 78.0125 118.878 77.0319 118.877 75.4035C118.877 73.5835 117.798 72.4821 115.842 72.3003C115.304 72.2504 114.764 72.1987 114.224 72.1449C112.006 71.9277 109.713 71.7032 107.448 71.6736C98.4113 71.5568 85.62 71.4648 73.2526 71.3762C63.6701 71.3106 54.6198 71.245 47.685 71.1702C47.1791 71.1514 46.6748 71.1006 46.1754 71.0179L45.8361 70.9707C45.9877 70.8072 46.1308 70.6517 46.2673 70.5034C46.7608 69.9678 47.1704 69.5235 47.5964 69.0968C53.5891 62.9933 58.5982 55.9965 62.4447 48.3565L62.5675 48.1229C62.9479 47.4609 63.2478 46.7558 63.4607 46.0226C63.5325 45.5876 63.5023 45.1418 63.3728 44.7204C63.3353 44.5504 63.2979 44.3812 63.2749 44.2158L63.2277 43.8711L62.8864 43.9368C62.6967 43.9735 62.4893 43.992 62.2832 44.0103C61.7673 43.998 61.2604 44.1471 60.8334 44.4369C60.3598 44.8834 59.9343 45.3784 59.564 45.9137C59.2778 46.3175 58.9652 46.7018 58.6281 47.0642C55.8715 49.882 53.1103 52.694 50.3445 55.5001C46.7792 59.1231 43.2204 62.7529 39.6678 66.3894C38.0856 67.911 36.6591 69.5866 35.4095 71.3913C33.6269 74.1584 33.8999 76.4609 36.3152 79.0888C38.6387 81.6125 41.0704 84.3468 43.7509 87.4474Z" fill="black"/>
</svg>

<svg xmlns="http://www.w3.org/2000/svg" width="153" height="149" fill="none" viewBox="0 0 153 149"><path fill="#000" d="M151.785 94.997c-.185-4.42-.378-10.668-.583-17.283-.314-10.116-.67-21.582-1.062-28.458-.394-6.938-.961-16.065-1.817-25.138-1.238-13.11-11.79-22.599-25.663-23.077C112.313.685 101.785.537 91.605.393h-.099C88.598.35 85.644.377 82.786.4c-4.703.04-9.565.081-14.328-.17C57.68-.34 46.256.138 31.417 1.777 21.814 2.84 14.591 5.658 8.687 10.65 3.85 14.74 1.494 19.477 1.48 25.13a159 159 0 0 1-.111 5.586 166 166 0 0 1-.28 4.906 80 80 0 0 0-.246 10.322c.74 11.694 1.904 37.334 1.006 50.669-.32 4.743-.232 9.583-.147 14.268l.017 1.013a67.7 67.7 0 0 0 3.575 21.491c2.418 6.899 7.11 11.092 13.945 12.466a83 83 0 0 0 12.995 1.646c8.162.333 16.465.518 24.495.697q4.887.109 9.774.228l.324-.094 2.807-.008h6.235l3.425.005c13.498.023 27.464.055 41.087-2.079 4.739-.743 10.276-1.779 15.4-3.839 10.218-4.107 15.732-11.678 16.388-22.502.427-7.023.104-14.102-.208-20.945a881 881 0 0 1-.177-3.963m-141.742-7.68L10 85.475c-.2-8.812-.62-27.149-1.122-34.867-.496-7.613-.798-17.655 1.284-27.789l.02-.074a.8.8 0 0 0 .047-.324c-.497-5.894 3.654-8.171 8.05-10.583l.149-.082c4.226-2.319 8.884-3.122 13.293-3.747a215 215 0 0 1 30.14-1.82c4.194 0 8.33.069 12.385.154 7.36.155 14.845.255 22.081.352 6.341.086 12.897.174 19.345.298a61 61 0 0 1 8.945.766c10.738 1.788 16.677 8.767 17.174 20.18.362 8.309.697 19.93 1.021 31.166.299 10.386.609 21.125.932 28.88.103 2.462.243 4.963.38 7.382.214 3.792.434 7.714.513 11.57.091 4.575-.162 9.249-.428 13.645-.394 6.526-4.185 11.158-11.257 13.768a65.8 65.8 0 0 1-13.193 3.151c-15.091 2.252-30.567 2.152-45.536 2.054l-1.977-.013a225 225 0 0 0-2.324 0H68.5l-.008.257q-4.972-.127-9.946-.248c-9.593-.236-19.513-.48-29.265-.8a49 49 0 0 1-7.516-1.044l-.428-.082c-4.228-.809-7.056-3.417-8.405-7.754a69.6 69.6 0 0 1-2.974-20.45c-.022-3.154.023-6.367.065-9.467.059-4.144.118-8.427.021-12.639z"/><path fill="#000" d="M43.75 87.447q2.927 3.385 5.827 6.796 3.15 3.694 6.324 7.371a13.1 13.1 0 0 0 2.814 2.564c.403.216.855.323 1.312.31a1.86 1.86 0 0 0 1.222-.354 2.65 2.65 0 0 0 .468-2.554 17.5 17.5 0 0 0-2.024-2.947 66 66 0 0 1-.511-.647q-3.655-4.712-7.315-9.418a9481 9481 0 0 1-8.522-10.976 7 7 0 0 1-.617-1.03l-.136-.255c1.568.076 3.108.155 4.63.233 3.755.192 7.301.374 10.895.512 7.643.291 18.806.575 29.601.849 9.293.236 18.071.46 24.518.682 1.263.029 2.526-.06 3.773-.268 1.903-.302 2.869-1.283 2.868-2.912 0-1.82-1.079-2.92-3.035-3.103a239 239 0 0 1-1.618-.155c-2.218-.217-4.511-.442-6.776-.471-9.037-.117-21.828-.21-34.195-.298-9.583-.065-18.633-.131-25.568-.206a12 12 0 0 1-1.51-.152l-.339-.047.431-.468c.494-.535.903-.98 1.33-1.406a82.7 82.7 0 0 0 14.848-20.74l.123-.234a9.6 9.6 0 0 0 .893-2.1 2.86 2.86 0 0 0-.088-1.303 6 6 0 0 1-.098-.504l-.047-.345-.342.066a6 6 0 0 1-.603.073 2.5 2.5 0 0 0-1.45.427 9.3 9.3 0 0 0-1.269 1.477q-.43.607-.936 1.15a3156 3156 0 0 1-8.284 8.436 4186 4186 0 0 0-10.676 10.89 33 33 0 0 0-4.258 5.001c-1.783 2.767-1.51 5.07.905 7.698a357 357 0 0 1 7.436 8.358"/></svg>
